devices/symbolic/multimedia-player-apple-ipod-touch-symbolic.svg

<svg xmlns="http://www.w3.org/2000/svg" viewBox="0 0 16 16">
  <path fill="#bebebe" d="M4 0C3 0 3 1 3 1v14s0 1 1 1h8c1 0 1-1 1-1V1s0-1-1-1H4zm1 3.004h6v10H5v-10z"/>
</svg>

<svg xmlns="http://www.w3.org/2000/svg" viewBox="0 0 16 16">
  <defs id="defs3051">
    <style type="text/css" id="current-color-scheme">
      .ColorScheme-Text {
        color:#4d4d4d;
      }
      </style>
  </defs>
 <path 
     style="fill:#bebebe;fill-opacity:1;stroke:none" 
     class="ColorScheme-Text"
     d="M 4 0 C 3 0 3 1 3 1 L 3 15 C 3 15 3 16 4 16 L 12 16 C 13 16 13 15 13 15 L 13 1 C 13 1 13 0 12 0 L 4 0 z M 5 3.0039062 L 11 3.0039062 L 11 13.003906 L 5 13.003906 L 5 3.0039062 z "
     />
</svg>
